X:1
T:What a Mighty God We Serve!
T:What a Mighty God We Serve!
T:Barney Elliott Warren
T:Clara McAlister Brooks,1907
T:Public Domain Courtesy of the Cyber Hymnal™
C:Barney Elliott Warren
Z:Public Domain
Z:Courtesy of the Cyber Hymnal™
%%score ( 1 2 ) ( 3 4 )
L:1/8
Q:1/4=107
M:4/4
K:F
V:1 treble 
V:2 treble 
V:3 bass 
V:4 bass 
V:1
 C2 | [CF]2 [CF]2 [EG]2 [EG]2 | [FA]2 [Fc]2 [Fc]4 | [Fc]>[Fd] [Fc]>[FA] F2 [FA]2 | [EG]6 C2 | %5
w: 1.~Our|Fa- ther’s won- drous|works we see|In the earth and sea and|sky; He|
w: 2.~The|rag- ing winds and|waves are calm,|When He says to them, “Be|still”; The|
w: 3.~He|mak- eth worlds by|His com- mand,|Weighs the moun- tains great and|high; Cre-|
w: 4.~Our|God, to save from|sin’s con- trol,|Gave His Son a sac- ri-|fice; His|
 [CF]2 [CF]2 [EG]2 [EG]2 | [FA]2 [Fc]2 [Fc]4 | [Fc]>[Fd] [Fc]>[GB] [FA]2 [EG]2 | [CF]6 z2 || %9
w: rules o’er all in|maj- es- ty,|From His roy- al throne on|high.|
w: heav- ens praise Him|in a psalm,|And the an- gels do His|will.|
w: ates the wa- ters|in His hand,|Spans the loft- y, star- lit|sky.|
w: grace, a- bound- ing|in the soul,|Makes the earth a par- a-|dise.|
"^Refrain" [CF]>[CF] [CF]>[CF] [EG]2 [EG]2 | A6 z2 | [FA]>[FA] [FA]>[FA] [F=B]2 [FB]2 | c8 | %13
w: ||||
w: ||||
w: ||||
w: ||||
 [Ac]>[Ac] [Af]>[Fd] [Fc]4 | [CF]>[CF] [FA]>[EG] F4 | [Ac]>[Bd] [Ac]>[GB] [FA]2 [EG]2 | [CF]6 |] %17
w: ||||
w: ||||
w: ||||
w: ||||
V:2
 C2 | x8 | x8 | x4 F2 x2 | x6 C2 | x8 | x8 | x8 | x8 || x8 | (F2 D2 C2) x2 | x8 | (E2 F2 G4) | x8 | %14
 x4 F4 | x8 | x6 |] %17
V:3
 [F,A,]2 | [F,A,]2 [F,A,]2 [C,C]2 [C,C]2 | [F,C]2 [F,A,]2 [F,A,]4 | %3
w: |||
 [F,A,]>[F,B,] [F,A,]>[F,C] [A,C]2 [F,C]2 | [C,C]6 [E,B,]2 | [F,A,]2 [F,A,]2 [C,C]2 [C,C]2 | %6
w: |||
 [F,C]2 [F,A,]2 [F,A,]4 | [F,A,]>[F,B,] [F,A,]>[B,,D] [C,C]2 [C,B,]2 | [F,,F,A,]6 z2 || %9
w: |||
 [F,A,]>[F,A,] [F,A,]>[F,A,] [C,C]2 [C,C]2 | [F,C]6 z2 | [F,C]>[F,C] [F,D]>[F,D] [G,D]2 [G,D]2 | %12
w: What a might- y God we|serve!|What a might- y God we|
 (C2 D2 E4) | [F,F]>[F,F] [F,C]>[F,B,] [F,A,]4 | [F,A,]>[F,A,] [C,C]>[C,B,] [F,A,]4 | %15
w: serve! * *|Reign- ing now a- bove|on His throne of love,|
 [F,F]>[F,F] [F,F]>[B,,D] [C,C]2 [C,B,]2 | [F,,F,A,]6 |] %17
w: What a might- y God we|serve!|
V:4
 x2 | x8 | x8 | x8 | x8 | x8 | x8 | x8 | x8 || x8 | x8 | x8 | C,8 | x8 | x8 | x8 | x6 |] %17

